static/img/in-field/switch-tick.svg

<svg fill="none" height="56" viewBox="0 0 78 56" width="78" xmlns="http://www.w3.org/2000/svg"><rect fill="#217cbb" height="32" rx="16" transform="matrix(1 0 0 -1 7 44)" width="64"/><path d="m68 28c0 7.1797-5.8203 13-13 13s-13-5.8203-13-13 5.8203-13 13-13 13 5.8203 13 13z" fill="#fff"/><path d="m52.6667 34.2084-1.375-1.375-1.3334-1.3334-1.375-1.375-1.3333-1.3333.5417-.5833.5833-.5834.5833-.5416.5834-.5834.75.7917.7916.75.7917.7917.7917.7916 1.9583-1.9583 1.9583-1.9583 1.9584-1.9584 1.9166-1.9583.5834.5833.5833.5834.5833.5416.5417.5834-2.5 2.5416-2.5417 2.5417-2.5416 2.5z" fill="#217cbb"/></svg>

<svg width="78" height="56" viewBox="0 0 78 56" fill="none" xmlns="http://www.w3.org/2000/svg">
<rect width="64" height="32" rx="16" transform="matrix(1 0 0 -1 7 44)" fill="#217CBB"/>
<path d="M68 28C68 35.1797 62.1797 41 55 41C47.8203 41 42 35.1797 42 28C42 20.8203 47.8203 15 55 15C62.1797 15 68 20.8203 68 28Z" fill="#fff"/>
<path d="M52.6667 34.2084L51.2917 32.8334L49.9583 31.5L48.5833 30.125L47.25 28.7917L47.7917 28.2084L48.375 27.625L48.9583 27.0834L49.5417 26.5L50.2917 27.2917L51.0833 28.0417L51.875 28.8334L52.6667 29.625L54.625 27.6667L56.5833 25.7084L58.5417 23.75L60.4583 21.7917L61.0417 22.375L61.625 22.9584L62.2083 23.5L62.75 24.0834L60.25 26.625L57.7083 29.1667L55.1667 31.6667L52.6667 34.2084Z" fill="#217CBB"/>
</svg>
